brandFactory_export/1.Light/Documento_Archivo imagen_1Light.svg

<?xml version="1.0" encoding="UTF-8"?>
<svg width="24px" height="24px" viewBox="0 0 24 24" version="1.1" xmlns="http://www.w3.org/2000/svg" xmlns:xlink="http://www.w3.org/1999/xlink">
    <title>1.Light/Documento_Archivo imagen_1Light</title>
    <g id="Symbols" stroke="none" stroke-width="1" fill="none" fill-rule="evenodd">
        <g id="1.Light/Documento_Archivo-imagen_1Light" fill="#5CB615" fill-rule="nonzero">
            <path d="M19.2823529,22.6319328 C19.5310924,22.6319328 19.7630252,22.410084 19.7630252,22.1781513 L19.7630252,7.91932773 L16.7109244,7.91932773 C15.5445378,7.91932773 14.5394958,7.5394958 13.8033613,6.82016807 C13.0638655,6.09747899 12.6739496,5.10588235 12.6739496,3.95966387 L12.6739496,0.994957983 L4.49243697,0.994957983 C4.27394958,0.994957983 4.01176471,1.24033613 4.01176471,1.4487395 L4.01176471,22.1781513 C4.01176471,22.4033613 4.25378151,22.6319328 4.49243697,22.6319328 L19.2823529,22.6319328 L19.2823529,22.6319328 Z M19.507563,6.92436975 L13.6554622,1.21008403 L13.6554622,3.95630252 C13.6554622,4.8302521 13.9411765,5.57310924 14.4857143,6.10420168 C15.0336134,6.63865546 15.8033613,6.92436975 16.707563,6.92436975 L19.507563,6.92436975 L19.507563,6.92436975 Z M20.707563,6.90756303 C20.7344538,6.96806723 20.7445378,7.03193277 20.7445378,7.10252101 L20.7445378,22.1781513 C20.7445378,22.9613445 20.0756303,23.6235294 19.2789916,23.6235294 L4.48907563,23.6235294 C3.7092437,23.6235294 3.02352941,22.9478992 3.02352941,22.1781513 L3.02352941,1.44537815 C3.02352941,0.68907563 3.72268908,0 4.48907563,0 L13.4907563,0 C13.7058824,0 13.907563,0.0840336134 14.0621849,0.231932773 L20.4957983,6.51428571 C20.610084,6.62521008 20.6705882,6.76302521 20.707563,6.90756303 Z M17.0907563,19.9663866 C17.1546218,19.9663866 17.2218487,19.9226891 17.2386555,19.8957983 L17.2252101,10.3663866 C17.2218487,10.4067227 17.1546218,10.3630252 17.0941176,10.3630252 L6.68403361,10.3630252 C6.62352941,10.3630252 6.57647059,10.389916 6.55294118,10.410084 L6.55294118,19.9630252 C6.55294118,19.9495798 6.55966387,19.9462185 6.5697479,19.9462185 C6.59327731,19.9462185 6.63697479,19.9663866 6.68739496,19.9663866 L17.0907563,19.9663866 L17.0907563,19.9663866 Z M17.0907563,9.36806723 C17.6857143,9.36806723 18.2067227,9.83529412 18.2067227,10.3663866 L18.2067227,19.9630252 C18.2067227,20.4941176 17.6857143,20.9613445 17.0907563,20.9613445 L6.68403361,20.9613445 C6.0789916,20.9613445 5.56806723,20.5042017 5.56806723,19.9630252 L5.56806723,10.3663866 C5.56806723,9.82521008 6.0789916,9.36806723 6.68067227,9.36806723 L17.0907563,9.36806723 Z M8.83193277,12.7697479 C8.54621849,12.7697479 8.31092437,13.005042 8.31092437,13.297479 C8.31092437,13.5865546 8.54621849,13.8252101 8.83193277,13.8252101 C9.1210084,13.8252101 9.35294118,13.5865546 9.35294118,13.297479 C9.35630252,13.005042 9.1210084,12.7697479 8.83193277,12.7697479 Z M8.83193277,14.8168067 C8.00168067,14.8168067 7.32941176,14.1344538 7.32941176,13.297479 C7.32941176,12.4605042 8.00504202,11.7781513 8.83193277,11.7781513 C9.66218487,11.7781513 10.3378151,12.4605042 10.3378151,13.297479 C10.3378151,14.1344538 9.66218487,14.8168067 8.83193277,14.8168067 Z M14.7277311,13.912605 L16.7310924,15.4621849 C16.9462185,15.6302521 16.9865546,15.9394958 16.8218487,16.1579832 C16.6571429,16.3764706 16.3478992,16.4168067 16.1327731,16.2487395 L14.4319328,14.9344538 L12.6235294,16.3865546 L13.7495798,17.4554622 C13.9478992,17.6436975 13.9579832,17.9563025 13.7697479,18.1579832 C13.5815126,18.3596639 13.2722689,18.3663866 13.0739496,18.1815126 L11.0605042,16.2655462 L8.13613445,18.7260504 C8.04537815,18.8033613 7.93109244,18.8403361 7.82016807,18.8403361 C7.6789916,18.8403361 7.53781513,18.7798319 7.44033613,18.6621849 C7.26890756,18.4504202 7.29579832,18.1378151 7.50420168,17.9630252 L10.7647059,15.2201681 C10.9563025,15.0588235 11.2352941,15.0689076 11.4168067,15.2403361 L11.9008403,15.7008403 L14.1193277,13.9193277 C14.3008403,13.7781513 14.5495798,13.7781513 14.7277311,13.912605 L14.7277311,13.912605 Z" id="Documento_Archivo-imagen_1Light"></path>
        </g>
    </g>
</svg>

<svg width="24" height="24" viewBox="0 0 24 24" xmlns="http://www.w3.org/2000/svg"><path d="M19.282 22.632c.25 0 .481-.222.481-.454V7.92h-3.052c-1.166 0-2.172-.38-2.908-1.099-.74-.723-1.13-1.714-1.13-2.86V.995h-8.18c-.22 0-.481.245-.481.454v20.73c0 .224.242.453.48.453h14.79zm.226-15.708L13.655 1.21v2.746c0 .874.286 1.617.83 2.148.549.535 1.318.82 2.223.82h2.8zm1.2-.016c.026.06.037.124.037.195v15.075c0 .783-.67 1.446-1.466 1.446H4.489c-.78 0-1.465-.676-1.465-1.446V1.445C3.024.69 3.723 0 4.489 0h9.002c.215 0 .417.084.571.232l6.434 6.282c.114.111.175.249.212.394zM17.09 19.966a.206.206 0 00.148-.07l-.014-9.53c-.003.04-.07-.003-.13-.003H6.683a.207.207 0 00-.131.047v9.553c0-.013.007-.017.017-.017.023 0 .067.02.117.02h10.404zm0-10.598c.595 0 1.116.467 1.116.998v9.597c0 .531-.521.998-1.116.998H6.684c-.605 0-1.116-.457-1.116-.998v-9.597c0-.54.511-.998 1.113-.998h10.41zM8.83 12.77a.527.527 0 000 1.055c.29 0 .522-.238.522-.528a.52.52 0 00-.521-.527zm0 2.047c-.83 0-1.502-.683-1.502-1.52 0-.836.676-1.519 1.503-1.519.83 0 1.506.683 1.506 1.52 0 .836-.676 1.519-1.506 1.519zm5.897-.904l2.003 1.55a.5.5 0 01.09.695.486.486 0 01-.688.09l-1.701-1.314-1.808 1.453 1.126 1.068c.198.189.208.501.02.703a.49.49 0 01-.696.024l-2.013-1.916-2.925 2.46a.492.492 0 01-.696-.064.502.502 0 01.064-.699l3.26-2.743a.489.489 0 01.653.02l.484.46 2.218-1.78a.5.5 0 01.609-.007z" fill="#5CB615" fill-rule="nonzero"/></svg>
